src/assets/images/start.svg

<svg height="32" viewBox="0 0 28 32" width="28" xmlns="http://www.w3.org/2000/svg"><path d="m155.963333 874.456667c-2.888333 0-5.238333-2.321667-5.238333-5.175 0-2.855 2.35-5.176667 5.238333-5.176667 2.888334 0 5.238334 2.321667 5.238334 5.176667 0 2.853333-2.35 5.175-5.238334 5.175m-12.463333-5.31c0 6.693333 12.363333 17.853333 12.5 17.853333 0 0 12.5-11.143333 12.5-17.853333 0-6.708334-5.596667-12.146667-12.5-12.146667s-12.5 5.438333-12.5 12.146667z" fill="#f8f8f8" fill-rule="evenodd" stroke="#363636" stroke-width="1.5" transform="translate(-142 -856)"/></svg>

<?xml version="1.0" encoding="UTF-8"?>
<svg width="28px" height="32px" viewBox="0 0 28 32" version="1.1" xmlns="http://www.w3.org/2000/svg" xmlns:xlink="http://www.w3.org/1999/xlink">
    <title>Icon</title>
    <g id="Design" stroke="none" stroke-width="1" fill="none" fill-rule="evenodd">
        <g id="ТУР" transform="translate(-142.000000, -2046.000000)" fill="#F8F8F8" stroke="#363636" stroke-width="1.5">
            <g id="Group-67" transform="translate(0.000000, 1190.000000)">
                <path d="M155.963333,874.456667 C153.075,874.456667 150.725,872.135 150.725,869.281667 C150.725,866.426667 153.075,864.105 155.963333,864.105 C158.851667,864.105 161.201667,866.426667 161.201667,869.281667 C161.201667,872.135 158.851667,874.456667 155.963333,874.456667 M143.5,869.146667 C143.5,875.84 155.863333,887 156,887 C156,887 168.5,875.856667 168.5,869.146667 C168.5,862.438333 162.903333,857 156,857 C149.096667,857 143.5,862.438333 143.5,869.146667 Z" id="Icon"></path>
            </g>
        </g>
    </g>
</svg>
